X:25
T:What Will You Do When the War Will Come?
B:Terry "Cuz" Teahan "Sliabh Luachra on Parade" 1980
Z:Patrick Cavanagh
M:6/8
L:1/8
R:Jig
K:D
| DFA AFA | Bcd AFD | DFA AFA | B2c d3 | 
DFA AFA | Bcd AFA | def edB | B2c d3 :| 
| def e2d | Bcd AFA | def edB | Bcd A3 | 
def e2d | Bcd A2F | DFA AFA | B2c d3 :|| 

